X:1
T:Passion-Flower -- Hornpipe
R:hornpipe
B:Cole's 1000 Fiddle Tunes
M:2/4
L:1/16
K:G
((3udef)|g2(dg) bgdg|bgfg e"4"c'af|g2(dg) Bgdg|ecBc .A2((3def)|
g2(dg) Bgdg|bgfg e2(dc)|Bgec BcAc|B2G2G2:|
|:vga|vbgfg efga|bgfg e2(fg)|afge defg|afge d2(ef)|
gfgd "4"e^d"4"eB|cd"0"ef g2(dc)|Bgec BcAc|B2G2G2:|
